icons/svgs/venus-outline.svg

<svg width="24" height="24" viewBox="0 0 24 24" fill="none" xmlns="http://www.w3.org/2000/svg">
<path d="M7.5 8.875C7.5 10.6719 8.4375 12.3125 10 13.2109C11.5234 14.1094 13.4375 14.1094 15 13.2109C16.5234 12.3125 17.5 10.6719 17.5 8.875C17.5 7.11719 16.5234 5.47656 15 4.57812C13.4375 3.67969 11.5234 3.67969 10 4.57812C8.4375 5.47656 7.5 7.11719 7.5 8.875ZM13.4375 15.7109V17.625H15.3125C15.8203 17.625 16.25 18.0547 16.25 18.5625C16.25 19.1094 15.8203 19.5 15.3125 19.5H13.4375V21.0625C13.4375 21.6094 13.0078 22 12.5 22C11.9531 22 11.5625 21.6094 11.5625 21.0625V19.5H9.6875C9.14062 19.5 8.75 19.1094 8.75 18.5625C8.75 18.0547 9.14062 17.625 9.6875 17.625H11.5625V15.7109C8.20312 15.2422 5.625 12.3906 5.625 8.875C5.625 5.08594 8.67188 2 12.5 2C16.2891 2 19.375 5.08594 19.375 8.875C19.375 12.3906 16.7578 15.2422 13.4375 15.7109Z" fill="black"/>
</svg>

<svg xmlns="http://www.w3.org/2000/svg" width="24" height="24" fill="currentColor" class="icon-venus-outline" viewBox="0 0 24 24">
  <mask id="a" width="15" height="20" x="5" y="2" maskUnits="userSpaceOnUse" style="mask-type:alpha">
    <path d="M7.5 8.875a4.97 4.97 0 0 0 2.5 4.336c1.523.898 3.438.898 5 0 1.523-.899 2.5-2.54 2.5-4.336 0-1.758-.977-3.398-2.5-4.297-1.562-.898-3.477-.898-5 0a4.96 4.96 0 0 0-2.5 4.297m5.938 6.836v1.914h1.874a.95.95 0 0 1 .938.938c0 .546-.43.937-.937.937h-1.876v1.563c0 .546-.43.937-.937.937-.547 0-.937-.39-.937-.937V19.5H9.687c-.546 0-.937-.39-.937-.937 0-.508.39-.938.938-.938h1.874v-1.914a6.88 6.88 0 0 1-5.937-6.836A6.86 6.86 0 0 1 12.5 2c3.79 0 6.875 3.086 6.875 6.875 0 3.516-2.617 6.367-5.937 6.836"/>
  </mask>
  <g mask="url(#a)">
    <path d="M0 0h24v24H0z"/>
  </g>
</svg>
